X:183
T: Venus, du und dein Kind
N: A0219B
O: Europa, Mitteleuropa, Deutschland
N: Als geistliches Lied
R: Romanze, Ballade, Lied
M: 4/2
L: 1/2
K: D
D | DAA^G | A2z
A | AG=FG | E2z
E | =FGAA | A^GA
E | =FGAA | G2A2 | z
AA_B | =cAG2 | G
GAG | =FGE2 | D3

@@@ Tune index: 183
